.local/share/icons/Gruvbox-Plus-Dark/panel/16/crow-translate-tray.svg

<svg xmlns="http://www.w3.org/2000/svg" width="16" height="16" version="1.1">
 <defs>
  <style id="current-color-scheme" type="text/css">
   .ColorScheme-Text { color:#ebdbb2; } .ColorScheme-Highlight { color:#458588; }
  </style>
 </defs>
 <path style="opacity:0.3;fill:currentColor" class="ColorScheme-Text" d="M 8 1 A 7 7 0 0 0 1 8 A 7 7 0 0 0 8 15 A 7 7 0 0 0 15 8 A 7 7 0 0 0 8 1 z M 8 3 A 5 5 0 0 1 13 8 A 5 5 0 0 1 8 13 A 5 5 0 0 1 3 8 A 5 5 0 0 1 8 3 z"/>
 <path style="fill:currentColor" class="ColorScheme-Text" d="m 10.003963,1.000015 c -0.01721,0.096098 -0.02858,0.1448837 -0.04922,0.244414 -0.03613,0.163024 -0.05553,0.2454725 -0.10371,0.4084963 0.141092,0.7790828 0.144222,1.5812872 0.0668,2.3655181 -0.01768,0.1786807 -0.04321,0.357015 -0.07558,0.5349763 -0.01686,0.040336 0.3357387,0.032474 0.3357387,0.032474 0.02663,-0.1848002 0.04595,-0.3694919 0.05449,-0.5520682 0.04646,-1.0158966 0.04163,-2.0385071 -0.228515,-3.0338105 z M 9.8246693,4.5944402 C 9.4813909,4.8906619 9.1346128,5.2046689 8.8772148,5.5618414 8.256577,6.4246846 7.861308,7.5152456 7.0596509,8.2606513 6.7338176,8.5624015 6.3541644,8.8255202 5.9645423,9.0571333 6.1696974,9.0864844 6.3974667,9.1064456 6.6026238,9.0657094 6.1888646,9.3201584 5.7258867,9.5622378 5.3879843,9.9015029 5.2207571,10.067873 5.0473091,10.237947 4.8852538,10.410841 c 0.1310236,-0.0783 0.284358,-0.167546 0.4429654,-0.16921 0.2620467,-0.0032 0.7646425,-0.285434 0.7646424,-0.285434 0,0 -0.9462711,0.591861 -1.3341693,0.958855 -0.2206709,0.208779 -0.4695357,0.407936 -0.6591746,0.646074 -0.1706769,0.215284 0.025916,0.21023 0.025916,0.21023 0.3189384,-0.114177 0.4429441,-0.23239 0.7773985,-0.302527 -0.1344715,0.0473 -0.1995444,0.07047 -0.3357395,0.114516 -0.2965268,0.114177 -0.4360817,0.200011 -0.6895086,0.343547 -0.4568579,0.259343 -0.909729,0.925171 -1.2269437,1.363933 -0.1689512,0.231615 -0.4474275,0.428446 -0.585347,0.666585 -0.079303,0.137011 -0.071698,0.280316 -0.052734,0.3162 0.1396432,0.249555 0.8371862,0.460727 1.2199123,0.552067 0.4603059,0.107652 0.9444459,0.156397 1.4185437,0.174338 0.2810105,-0.05709 0.5718259,-0.169882 0.7787049,-0.362347 0.2810107,-0.260977 0.6869617,-0.513543 0.8490168,-0.851178 0.093095,-0.190837 0.2356777,-0.3027 0.2408184,-0.305944 -0.2120508,0.340898 -0.4443855,0.671325 -0.6960882,0.984493 -0.1206795,0.148429 -0.2865213,0.33671 -0.2865213,0.33671 0.2810106,-0.09786 0.5749359,-0.258485 0.8507746,-0.302527 0.1706759,-0.02773 0.3594036,-0.104757 0.4904264,-0.222195 0.1396429,-0.125593 0.3504779,-0.17538 0.4746059,-0.304235 0.3430736,-0.357207 0.5741918,-0.901614 0.9017506,-1.276764 0.041373,-0.0473 0.1403531,-0.170634 0.216209,-0.271761 0.060345,-0.08155 0.1089837,-0.150409 0.1089837,-0.150409 -0.1741225,0.383305 -0.3483162,0.773268 -0.5414025,1.145156 -0.00171,0.0033 -0.0018,0.007 -0.00351,0.01025 -0.058617,0.102759 -0.1459015,0.202718 -0.2355452,0.29569 -0.012078,0.01304 -0.023085,0.02454 -0.035154,0.0376 -0.015507,0.01629 -0.00648,0.01648 0.017577,0.0034 0.3499704,-0.17942 0.6587022,-0.45299 0.9931567,-0.668293 0.010341,-0.0065 0.021276,-0.01219 0.028125,-0.01709 0.2499793,-0.140273 0.4711913,-0.38897 0.6556584,-0.587962 0.1741234,-0.187574 0.2628241,-0.301661 0.3093726,-0.56916 0.00171,-0.0081 0.0018,-0.01577 0.00351,-0.02392 0.056889,-0.386567 0.1176697,-0.772106 0.2021466,-1.155411 0.017235,-0.07992 0.030087,-0.14786 0.040428,-0.201686 0,-0.0065 0.0018,-0.01573 0.0035,-0.02222 0.0017,-0.01304 0.0053,-0.02618 0.007,-0.03761 0.0017,-0.0065 0.0018,-0.0123 0.0035,-0.0188 0.0017,-0.01142 0.0036,-0.02089 0.0053,-0.02905 v -0.0017 c 0,-0.0049 0.0036,-0.02256 0.0053,-0.02905 0.0034,-0.01794 0.02637,-0.08204 0.02637,-0.08204 v 0.02564 0.01538 c -0.01383,0.676901 -0.1262196,1.406055 -0.01934,2.071537 0.07931,0.492588 0.124804,0.391405 0.124804,0.391405 0.04655,-0.580666 -0.01549,-1.286688 0.181053,-1.815159 0.132747,-0.357208 0.345883,-0.744839 0.41484,-1.1297739 0.07067,-0.3947231 0.06835,-0.8158524 0.058,-1.2203618 -0.01378,-0.5235779 -0.04723,-1.0505075 -0.124804,-1.5724542 0.0724,0.247925 0.177803,0.5078487 0.1916,0.7622986 0.01378,0.2413995 0.02128,0.4903677 0.02812,0.7366608 C 10.97799,8.283754 11.022408,7.960484 10.98792,7.6522082 10.95512,7.3684003 11.0119,7.0782374 10.97912,6.7993221 10.93602,6.4339676 10.92387,6.0391538 10.796291,5.6917326 10.673886,5.3524671 10.315038,5.0139524 10.221942,4.6730558 10.213242,4.6416068 10.191232,4.6160908 10.165692,4.5944328 10.030451,5.525936 9.7019162,6.4740492 9.4010494,7.3428106 9.0207961,8.4427931 8.4113298,9.3727644 7.8383663,10.369785 7.3118587,11.284434 6.6776082,12.057576 5.8568757,12.707956 5.1411008,13.27425 4.3496131,13.706584 3.4979096,14.018904 c -0.2649744,0.0961 -0.5615258,0.129865 -0.8419856,0.138444 -0.2064737,0.0052 -0.3534664,-0.0068 -0.3603488,-0.0068 C 2.9046722,14.023535 3.5218906,13.84069 4.0621631,13.530086 5.5608169,12.666917 6.7728061,11.485075 7.6520399,9.9783913 8.2112388,9.0225562 8.7392872,8.0836754 9.1074978,7.0334575 9.3828425,6.2444667 9.6689387,5.4243467 9.8246793,4.5944444 Z"/>
</svg>

<svg width="16" height="16" version="1.1" xmlns="http://www.w3.org/2000/svg">
  <defs>
    <style id="current-color-scheme" type="text/css">.ColorScheme-Text { color:#ebdbb2; } .ColorScheme-Highlight { color:#458588; } .ColorScheme-NeutralText { color:#fe8019; } .ColorScheme-PositiveText { color:#689d6a; } .ColorScheme-NegativeText { color:#fb4934; }</style>
  </defs>
  <path class="ColorScheme-Text" d="m8 1a7 7 0 0 0-7 7 7 7 0 0 0 7 7 7 7 0 0 0 7-7 7 7 0 0 0-7-7zm0 2a5 5 0 0 1 5 5 5 5 0 0 1-5 5 5 5 0 0 1-5-5 5 5 0 0 1 5-5z" fill="currentColor" opacity=".3"/>
  <path class="ColorScheme-Text" d="m10 1s-0.0286 0.1449-0.0493 0.2444c-0.0361 0.1631-0.1037 0.4085-0.1037 0.4085 0.1411 0.7791 0.1443 1.581 0.0668 2.366l-0.0755 0.535 0.3357 0.0325 0.054-0.5521c0.047-1.016 0.042-2.038-0.228-3.034zm-0.1793 3.594c-0.3433 0.2963-0.6901 0.6103-0.9475 0.9674-0.6206 0.8629-1.016 1.953-1.818 2.699-0.3259 0.3017-0.7055 0.5648-1.095 0.7964 0.2052 0.0294 0.433 0.0493 0.6381 0.0086 0 0-0.8767 0.4965-1.215 0.8358-0.1672 0.1665-0.3407 0.3365-0.5027 0.5095 0.131-0.078 0.2843-0.168 0.4429-0.169 0.2621-4e-3 0.7647-0.2858 0.7647-0.2858s-0.9463 0.5918-1.334 0.9588c-0.2207 0.209-0.4695 0.408-0.6592 0.646-0.1707 0.215 0.0259 0.21 0.0259 0.21 0.319-0.114 0.443-0.232 0.7774-0.302-0.1344 0.047-0.7718 0.314-1.025 0.458-0.4569 0.259-0.9097 0.925-1.227 1.364-0.1689 0.231-0.4474 0.428-0.5853 0.666-0.0793 0.137-0.0717 0.281-0.0527 0.317 0.1396 0.249 0.8371 0.46 1.22 0.552 0.4603 0.107 0.9444 0.156 1.418 0.174 0.281-0.057 0.5718-0.17 0.7787-0.362 0.281-0.261 0.687-0.514 0.849-0.852 0.0931-0.19 0.2357-0.302 0.2409-0.305-0.2121 0.34-0.4444 0.671-0.6961 0.984-0.1207 0.148-0.2866 0.337-0.2866 0.337 0.2811-0.098 0.575-0.259 0.8508-0.303 0.1707-0.028 0.3594-0.105 0.4904-0.222 0.1397-0.126 0.3505-0.175 0.4747-0.304 0.343-0.357 0.5741-0.902 0.9017-1.277l0.2162-0.272 0.109-0.15s-0.3483 0.773-0.5414 1.145l-0.0035 0.01c-0.0586 0.103-0.1459 0.203-0.2356 0.296l-0.0351 0.038 0.0176 3e-3c0.3499-0.179 0.6587-0.453 0.9931-0.668l0.0281-0.017c0.25-0.141 0.4712-0.389 0.6557-0.588 0.1741-0.188 0.2628-0.302 0.3094-0.57l0.271-1.519 0.026-0.082v0.041c-0.014 0.677-0.1262 1.406-0.019 2.072 0.079 0.492 0.124 0.391 0.124 0.391 0.047-0.581-0.015-1.287 0.182-1.815 0.132-0.357 0.345-0.745 0.414-1.13 0.071-0.3947 0.069-0.8159 0.058-1.22-0.013-0.5235-0.047-1.05-0.124-1.572 0.072 0.2479 0.177 0.5078 0.191 0.7623 0.014 0.2414 0.028 0.7366 0.028 0.7366 0.059-0.3033 0.103-0.6266 0.069-0.9349-0.033-0.2838 0.024-0.574-9e-3 -0.8529-0.043-0.3653-0.055-0.7601-0.183-1.108-0.122-0.3392-0.481-0.6777-0.574-1.019l-0.056-0.0787c-0.136 0.9315-0.4641 1.88-0.765 2.748-0.3802 1.1-0.9897 2.03-1.563 3.027-0.5265 0.914-1.161 1.688-1.982 2.338-0.7158 0.566-1.507 0.999-2.359 1.311-0.265 0.096-0.5615 0.13-0.842 0.138-0.2064 6e-3 -0.3603-6e-3 -0.3603-6e-3 0.6091-0.127 1.226-0.31 1.767-0.621 1.499-0.863 2.711-2.045 3.59-3.552 0.5592-0.9558 1.087-1.895 1.456-2.945 0.2753-0.789 0.5614-1.609 0.7172-2.439z" fill="currentColor"/>
</svg>
